X:22
T:Bonny at Morn
Z:Jack Campin, http://www.campin.me.uk/
S:Northumbrian Minstrelsy
M:6/4
L:1/8
K:G Minor
A2|(d3    e)  d c  d2 G2 (AB)|(c3  B) A G (F2 G2)
A2| d3    e  (d`c) d2 G2  A2 | c2 A2  F2   G4
A2|(d3    e)  d c  d2 G2 (AB)|(c3  B) A G (F2 G2)
A2|(GF) (GA) (B`c) d2 g2  f2 | d2 f2  A2   G4 ||
z2| G2   g2   g2  (G4     B2)| A2 f2  f2   F4
A2| G3    A  (Bc)  d2 g2  f2 | d2 f2  A2   G4 |]

